src/pos-icons/screen-rotation.svg

<svg height="24" viewBox="0 0 24 24" width="24" xmlns="http://www.w3.org/2000/svg"><path d="m7.5 21.5c-3.25-1.56-5.59-4.74-5.95-8.5h-1.5c.51 6.16 5.66 11 11.95 11l.66-.03-3.81-3.81m5.98 1.03-12.02-12.02 6.36-6.36 12.02 12.02m-10.96-13.08c-.59-.59-1.54-.59-2.12 0l-6.36 6.36c-.59.59-.59 1.54 0 2.12l12.02 12.02c.59.59 1.54.59 2.12 0l6.36-6.36c.59-.59.59-1.54 0-2.12zm6.27.75c3.25 1.57 5.59 4.74 5.95 8.5h1.5c-.51-6.16-5.66-11-11.95-11l-.66.03 3.81 3.81z"/></svg>

<?xml version="1.0" encoding="UTF-8"?><!DOCTYPE svg PUBLIC "-//W3C//DTD SVG 1.1//EN" "http://www.w3.org/Graphics/SVG/1.1/DTD/svg11.dtd"><svg xmlns="http://www.w3.org/2000/svg" xmlns:xlink="http://www.w3.org/1999/xlink" version="1.1" id="mdi-screen-rotation" width="24" height="24" viewBox="0 0 24 24"><path d="M7.5,21.5C4.25,19.94 1.91,16.76 1.55,13H0.05C0.56,19.16 5.71,24 12,24L12.66,23.97L8.85,20.16M14.83,21.19L2.81,9.17L9.17,2.81L21.19,14.83M10.23,1.75C9.64,1.16 8.69,1.16 8.11,1.75L1.75,8.11C1.16,8.7 1.16,9.65 1.75,10.23L13.77,22.25C14.36,22.84 15.31,22.84 15.89,22.25L22.25,15.89C22.84,15.3 22.84,14.35 22.25,13.77L10.23,1.75M16.5,2.5C19.75,4.07 22.09,7.24 22.45,11H23.95C23.44,4.84 18.29,0 12,0L11.34,0.03L15.15,3.84L16.5,2.5Z" /></svg>
